src/cart/components/img/icon.svg

<svg height="20" viewBox="0 0 20 20" width="20" xmlns="http://www.w3.org/2000/svg"><g fill="#000" fill-rule="evenodd"><path d="m13 2.79350279c-.2082323.00451428-.4123628.02595163-.6111111.06301197v-2.23593638h-9.77777779v13.21925032l4.88858333 5.2562989 4.88919446-5.2562989v-3.3539083c.1987483.0370603.4028788.0584977.6111111.063012v3.5372659l-5.50030556 5.9138017-5.49969444-5.9138017v-14.0861983h11z" fill-rule="nonzero"/><path d="m13 10.8c-2.209139 0-4-1.79086105-4-4.00000005s1.790861-4 4-4 4 1.790861 4 4-1.790861 4.00000005-4 4.00000005zm0-.5c1.9329966 0 3.5-1.56700342 3.5-3.50000005 0-1.93299662-1.5670034-3.5-3.5-3.5s-3.5 1.56700338-3.5 3.5c0 1.93299663 1.5670034 3.50000005 3.5 3.50000005z" fill-rule="nonzero"/><path d="m13.2 6.8h1.8v.4h-1.8v1.8h-.4v-1.8h-1.8v-.4h1.8v-1.8h.4z"/></g></svg>

<?xml version="1.0" encoding="UTF-8"?>
<svg width="20px" height="20px" viewBox="0 0 20 20" version="1.1" xmlns="http://www.w3.org/2000/svg" xmlns:xlink="http://www.w3.org/1999/xlink">
    <!-- Generator: Sketch 49.3 (51167) - http://www.bohemiancoding.com/sketch -->
    <title>Artboard 2</title>
    <desc>Created with Sketch.</desc>
    <defs></defs>
    <g id="Artboard-2" stroke="none" stroke-width="1" fill="none" fill-rule="evenodd">
        <path d="M13,2.79350279 C12.7917677,2.79801707 12.5876372,2.81945442 12.3888889,2.85651476 L12.3888889,0.620578379 L2.61111111,0.620578379 L2.61111111,13.8398287 L7.49969444,19.0961276 L12.3888889,13.8398287 L12.3888889,10.4859204 C12.5876372,10.5229807 12.7917677,10.5444181 13,10.5489324 L13,14.0861983 L7.49969444,20 L2,14.0861983 L2,0 L13,0 L13,2.79350279 Z" id="Combined-Shape" fill="#000000" fill-rule="nonzero"></path>
        <path d="M13,10.8 C10.790861,10.8 9,9.00913895 9,6.79999995 C9,4.59086095 10.790861,2.79999995 13,2.79999995 C15.209139,2.79999995 17,4.59086095 17,6.79999995 C17,9.00913895 15.209139,10.8 13,10.8 Z M13,10.3 C14.9329966,10.3 16.5,8.73299658 16.5,6.79999995 C16.5,4.86700333 14.9329966,3.29999995 13,3.29999995 C11.0670034,3.29999995 9.5,4.86700333 9.5,6.79999995 C9.5,8.73299658 11.0670034,10.3 13,10.3 Z" id="Oval" fill="#000000" fill-rule="nonzero"></path>
        <path d="M13.2,6.8 L15,6.8 L15,7.2 L13.2,7.2 L13.2,9 L12.8,9 L12.8,7.2 L11,7.2 L11,6.8 L12.8,6.8 L12.8,5 L13.2,5 L13.2,6.8 Z" id="Combined-Shape" fill="#000000"></path>
    </g>
</svg>
